www/assets/icons/turn_sharp_right.svg

<svg xmlns="http://www.w3.org/2000/svg" width="24" height="24" viewBox="0 0 24 24" fill='currentColor'><path d="m16.5 6.83 1.59 1.59L19.5 7l-4-4-4 4 1.41 1.41 1.59-1.58V13h-8c-1.1 0-2 .9-2 2v6h2v-6h8c1.1 0 2-.9 2-2z"/></svg>

<svg width="24" height="24" viewBox="0 0 24 24" xmlns="http://www.w3.org/2000/svg" fill='currentColor'><path d="M16.5 6.83L18.09 8.42L19.5 7L15.5 3L11.5 7L12.91 8.41L14.5 6.83V13H6.5C5.4 13 4.5 13.9 4.5 15V21H6.5V15H14.5C15.6 15 16.5 14.1 16.5 13V6.83Z"/></svg>
